static/assets/img/icons/theme/media/dvd.svg

<svg height="24" viewBox="0 0 24 24" width="24" xmlns="http://www.w3.org/2000/svg"><g fill="none" fill-rule="evenodd"><path d="m0 0h24v24h-24z" opacity="0"/><g fill="#000"><circle cx="12" cy="12" opacity=".3" r="9"/><path d="m11.1582329 15.8732969 3.9924943-3.4824524c.2081017-.1815167.2296531-.4973647.0481365-.7054664-.0145916-.0167287-.0302811-.0324671-.0469643-.0471108l-3.9924943-3.50441264c-.2075352-.18216407-.5234489-.1615967-.7056129.04593851-.0800709.09122287-.1242243.20845783-.1242243.32983723v6.9868651c0 .2761423.2238576.5.5.5.1208431 0 .2375973-.0437648.328665-.1231986z"/></g></g></svg>

<svg width="24px" height="24px" viewBox="0 0 24 24" version="1.1" xmlns="http://www.w3.org/2000/svg" xmlns:xlink="http://www.w3.org/1999/xlink">
    <title>Icon For DVD</title>
    <g stroke="none" stroke-width="1" fill="none" fill-rule="evenodd">
        <rect opacity="0" x="0" y="0" width="24" height="24"></rect>
        <circle fill="#000000" opacity="0.3" cx="12" cy="12" r="9"></circle>
        <path d="M11.1582329,15.8732969 L15.1507272,12.3908445 C15.3588289,12.2093278 15.3803803,11.8934798 15.1988637,11.6853781 C15.1842721,11.6686494 15.1685826,11.652911 15.1518994,11.6382673 L11.1594051,8.13385466 C10.9518699,7.95169059 10.6359562,7.97225796 10.4537922,8.17979317 C10.3737213,8.27101604 10.3295679,8.388251 10.3295679,8.5096304 L10.3295679,15.4964955 C10.3295679,15.7726378 10.5534255,15.9964955 10.8295679,15.9964955 C10.950411,15.9964955 11.0671652,15.9527307 11.1582329,15.8732969 Z" fill="#000000"></path>
    </g>
</svg>
